X: 137
T:Danza de Cariño
M:2/4
L:1/8
Q:300
C:Trad
S:Rep. "Milladoiro"
R:Danza
K:C
C>DEF | G>c BA | G>c BA | G4| cB/A/ GF| E>F GA| D>E FG |1 E4 :|2 C4- | C
/"F."c/C EG | c4 | Bc AB | G>FE2- |
EG/"F."c/ GA | F>E D2- | D F/"F."c/FG | E>F G2- |
GCEG | c4 | Bc AB | G>FE2- | EG/"F."c/ GA | F>E D2- | DF/"F."c/ FG |: C"
F."G CE |G>A GE | F>E DE |FG FD |E>D CD | EF EC | D>C B,C |DE DB, :| C2
GA/B/ | c4 ||

